X: 13
T: Jump At The Sun
R: jig
M: 6/8
L: 1/8
K: Emin
|: B |EGB ^A2 B | EGB ^A2 B | eBB eBB | BAG F3 |
EGB ^A2 B | EGB ^A2 B | eBB cBA | GAF E2 :|
|: B |eBB gfe | fBB agf | gfe gfe | fBB c2 B |
eBB gfe | fBB agf | e2 B cBA | GAF E2 :|


Tune 736	Setting 13812

